src/svg/leanpub.svg

<svg height="1000" width="1125.0" xmlns="http://www.w3.org/2000/svg">
    <path d="m755 217.7l29.4 486.3-21.4-0.6c-70.8-1.6-139.9 17.2-200.5 54.7-60.6-37.5-129.7-54.7-200.5-54.7-89 0-160.3 21-241.2 54.2l61.1-504.5c55.7-23 120.1-35.4 180.1-35.4 80.4 0 144.2 25.8 200.5 83.1 54.1-55.2 115.3-81.4 192.5-83.1z m356.5 657.3c-49.9 0-92.8-10.2-137.8-30.6-67-30.5-136.7-48.7-210.7-48.7-76.1 0-146.4 25.2-200.5 79.3-54.1-54.1-124.4-79.3-200.5-79.3-74 0-143.7 18.2-210.7 48.7-43.4 19.3-87.4 30.6-135.1 30.6h-2.7l83.1-681.9c76.7-43.4 170-68.1 258.4-68.1 72.4 0 146.9 15 207.5 56.8 60.6-41.8 135.1-56.8 207.5-56.8 88.4 0 181.7 24.7 258.4 68.1z m-84.7-87.4l-66.5-547.3c-60.1-27.4-131.4-41.9-197.3-41.9-75.1 0-145.3 23.6-200.5 75.6-55.2-52-125.4-75.6-200.5-75.6-65.9 0-137.2 14.5-197.3 41.9l-66.5 547.3c92.2-38 161.9-65.4 263.8-65.4 73.4 0 138.3 18.8 200.5 57.9 62.2-39.1 127.1-57.9 200.5-57.9 101.9 0 171.6 27.4 263.8 65.4z" />
  </svg>

<svg height="1000" width="1125" xmlns="http://www.w3.org/2000/svg"><path d="M755 217.7L784.4 704l-21.4 -.6c-70.8 -1.6 -139.9 17.2 -200.5 54.7C501.9 720.6 432.8 703.4 362 703.4c-89 0 -160.3 21 -241.2 54.2l61.1 -504.5C237.6 230.1 302 217.7 362 217.7c80.4 0 144.2 25.8 200.5 83.1C616.6 245.6 677.8 219.4 755 217.7zM1111.5 875c-49.9 0 -92.8 -10.2 -137.8 -30.6C906.7 813.9 837 795.7 763 795.7c-76.1 0 -146.4 25.2 -200.5 79.3C508.4 820.9 438.1 795.7 362 795.7c-74 0 -143.7 18.2 -210.7 48.7C107.9 863.7 63.9 875 16.2 875h-2.7L96.6 193.1C173.3 149.7 266.6 125 355 125c72.4 0 146.9 15 207.5 56.8C623.1 140 697.6 125 770 125c88.4 0 181.7 24.7 258.4 68.1l83.1 681.9zm-84.7 -87.4L960.3 240.3C900.2 212.9 828.9 198.4 763 198.4c-75.1 0 -145.3 23.6 -200.5 75.6C507.3 222 437.1 198.4 362 198.4c-65.9 0 -137.2 14.5 -197.3 41.9L98.2 787.6c92.2 -38 161.9 -65.4 263.8 -65.4 73.4 0 138.3 18.8 200.5 57.9C624.7 741 689.6 722.2 763 722.2c101.9 0 171.6 27.4 263.8 65.4z"/></svg>
